X: 3708
T: Billy The Box Player
R: reel
M: 4/4
K: Gmajor
"G"DG "Am"(3ABc "G"dedB|"Am"cA"G"dB "C"ce"G"dg|"D"f2 (3ABc dAFA|"G"GA (3BAG "D"cA d2|
"G"DG "Am"(3ABc "G"dedB|"Am"cA"G"dB "C"ce"G"dg|"D"f2 (3ABc "G"dg"D"fd|"D"AdFA "G"G4:|
"G"gdga "D"fadB|"Am"cA"G"dB "D"cAFA|"G"BG"C"ce "D"defg|"D"addc Add2|
"G"gdga "D"fadB|"Am"cA"G"dB "D"cAFA|"G"BG"C"ce "D"defg|"Am"ag"D"fa "G"g4:|

